/* XPM */
static char *Memhack[] = {
/* columns rows colors chars-per-pixel */
"48 53 157 2 ",
"   c None",
".  c #EF1C73",
"X  c #EF1E75",
"o  c #F01D74",
"O  c #D8357A",
"+  c #F02076",
"@  c #F02277",
"#  c #F02377",
"$  c #F02378",
"%  c #F12378",
"&  c #F02478",
"*  c #F12478",
"=  c #F12578",
"-  c #F02479",
";  c #F12479",
":  c #F02579",
">  c #F12579",
",  c #F0267A",
"<  c #F1267A",
"1  c #F1277A",
"2  c #F1277B",
"3  c #F0287A",
"4  c #F0287B",
"5  c #F1287B",
"6  c #F0297B",
"7  c #F1297B",
"8  c #F0297C",
"9  c #F1297C",
"0  c #F12A7C",
"q  c #F12B7D",
"w  c #F12C7D",
"e  c #F02D7E",
"r  c #F12D7E",
"t  c #F02E7E",
"y  c #F12F7E",
"u  c #F02E7F",
"i  c #F12E7F",
"p  c #F12F7F",
"a  c #F1307F",
"s  c #F12F80",
"d  c #EF3381",
"f  c #F13080",
"g  c #F13180",
"h  c #F13181",
"j  c #F13281",
"k  c #F13381",
"l  c #F23281",
"z  c #F13382",
"x  c #F23382",
"c  c #F13482",
"v  c #F13582",
"b  c #F13483",
"n  c #F23482",
"m  c #F23483",
"M  c #F23583",
"N  c #F13683",
"B  c #F23683",
"V  c #F13784",
"C  c #F23784",
"Z  c #F13985",
"A  c #F23885",
"S  c #F23986",
"D  c #F13B87",
"F  c #F23B87",
"G  c #F23D88",
"H  c #F23E89",
"J  c #F1408A",
"K  c #F2408A",
"L  c #F2418A",
"P  c #F2418B",
"I  c #F2428B",
"U  c #F2438B",
"Y  c #F2438C",
"T  c #F2448C",
"R  c #F2468D",
"E  c #F3498F",
"W  c #F24A90",
"Q  c #F24B90",
"!  c #F35396",
"~  c #F35496",
"^  c #F35999",
"/  c #F45898",
"(  c #F45D9B",
")  c #F45E9C",
"_  c #F45F9D",
"`  c #F4619E",
"'  c #F4629E",
"]  c #F4639F",
"[  c #F56DA5",
"{  c #F577AC",
"}  c #F579AC",
"|  c #F678AC",
" . c #F686B5",
".. c #F68DB9",
"X. c #F68EBA",
"o. c #F790BB",
"O. c #F792BC",
"+. c #F796BE",
"@. c #F898BF",
"#. c #F89FC4",
"$. c #F8A0C4",
"%. c #F8A0C5",
"&. c #F8A2C6",
"*. c #F9A2C6",
"=. c #F8A3C6",
"-. c #F9A3C6",
";. c #F8A5C7",
":. c #F9A8C9",
">. c #F9ACCC",
",. c #F9ADCC",
"<. c #F9AECD",
"1. c #F9B3D0",
"2. c #FAB5D1",
"3. c #FAB6D2",
"4. c #FAB9D4",
"5. c #F9BCD5",
"6. c #FAC0D8",
"7. c #FAC1D9",
"8. c #FBC4DA",
"9. c #FBC9DD",
"0. c #FBCEE1",
"q. c #FBD5E5",
"w. c #FCD5E5",
"e. c #FCD6E6",
"r. c #FCD9E7",
"t. c #FCDDEA",
"y. c #FCDFEB",
"u. c #FDE5EF",
"i. c #FCE6EF",
"p. c #FDE7F0",
"a. c #FDE8F0",
"s. c #FDE8F1",
"d. c #FDE9F1",
"f. c #FDEBF3",
"g. c #FDECF3",
"h. c #FDEDF3",
"j. c #FDEDF4",
"k. c #FDEEF4",
"l. c #FDF1F6",
"z. c #FDF3F7",
"x. c #FEF3F7",
"c. c #FDF5F8",
"v. c #FEF4F8",
"b. c #FDF6F9",
"n. c #FEF6F9",
"m. c #FEF7F9",
"M. c #FEF8FB",
"N. c #FEF9FB",
"B. c #FEFAFB",
"V. c #FEFBFC",
"C. c #FEFCFD",
"Z. c #FEFDFD",
"A. c #FEFDFE",
"S. c #FEFEFE",
"D. c #FFFEFE",
"F. c #FEFFFF",
"G. c white",
/* pixels */
"                                                                                                ",
"                                                                                                ",
"                                                                                                ",
"                                                                                                ",
"                                                                                                ",
"                                                                                                ",
"                    O d x x x x x x x x x x x x x x x x x x x x x x x x d O                     ",
"                x x x x x x x x x x x x x x x x x x x x x x x x x x x x x x x x                 ",
"              x x x x x x x x x x x x x x x x x x x x x x x x x x x x x x x x x x               ",
"            x x x x x x x x x x x x x x x x x x x x x x x x x x x x x x x x x x x x             ",
"          x x x x x x x x x x x x x x x x x x x x x x x x x x x x x x x x x x x x x x           ",
"          x x x x x x x x x x x x x x x x x x x x x x x x x x x x x x x x x x x x x x           ",
"        O x x x x x x x x x x x x x x x x x x x x x x x x x x x x x x x x x x x x x x O         ",
"        d x x x x x x x x x x x x x x x x x x x x x x x x x x x x x x x x x x x x x x d         ",
"        x x x x x x x x x x x x x x x x x x x x x x x x x x x x x x x x x x x x x x x x         ",
"        x x x x x x x x x x x x x x x x x x x x x x x x x x x x x x x x x x x x x x x x         ",
"        x x x x x x x x x x x x x x x x x x x x x x x x x x x x x x x x x x x x x x x x         ",
"        x x x x x x x x x x x x x x x x x x x x x x x x x x x x x x x x x x x x x x x x         ",
"        x x x x x x x x x x x B B x x x x B B x x x x B B B x x x x x x x x x x x x x x         ",
"        x x x x x x x x x x x q q x B B s q 5 p B B B p 5 q x B x x x x x x x x x x x x         ",
"        x x x x x x x x x x V _ ~ S < < H _ ` L < p < E ` / x 5 B x x x x x x x x x x x         ",
"        x x x x x x x x x p L G.G.a.%.+.g.G.G.k.O.S >.b.G.G.e.` 5 B x x x x x x x x x x         ",
"        x x x x x x x x x a H 8.u.G.G.G.G.e.q.G.G.a.G.G.0.u.G.N./ q B x x x x x x x x x         ",
"        x x x x x x x x x x x p q %.G.G.k.R < | N.G.a.( 5 B 1.G.6.5 B x x x x x x x x x         ",
"        x x x x x x x x x x x x x y.G.a.G.#.< % 5.G.#.o S 5 W V.g.S p x x x x x x x x x         ",
"        x x x x x x x x x x B 5 _ G.r.[ G.y.V < #.G...< V p L b.b.L p x x x x x x x x x         ",
"        x x x x x x x x x x B < { G.2.x z.N.W X %.G.o.< B p Y b.z.L p x x x x x x x x x         ",
"        x x x x x x x x x x B < | G.4.# u.G.! . %.G.o.% V p Y b.z.L p x x x x x x x x x         ",
"        x x x x x x x x x x B q ^ G.p. .b.b.R # %.G...< B p L z.z.L p x x x x x x x x x         ",
"        x x x x x x x x x x x x q 6.G.G.G.;.q < :.G.+.# V p R G.G.L p x x x x x x x x x         ",
"        x x x x x x x x x x x x p S %.9.@.x x q | 2.[ 5 B s H >.>.S x x x x x x x x x x         ",
"        x x x x x x x x x x x x B x < q < x x x p < p x x x x < < x x x x x x x x x x x         ",
"        x x x x x x x x x x x x x x B B B x x x B B B x x x x B B x x x x x x x x x x x         ",
"        x x x x x x x x x x x x x x x x x x x x x x x x x x x x x x x x x x x x x x x x         ",
"        x x x x x x x x x x x x x x x x x x x x x x x x x x x x x x x x x x x x x x x x         ",
"        x x x x x x x x x x x x x x x x x x x x x x x x x x x x x x x x x x x x x x x x         ",
"        x x x x x x x x x x x x x x x x x x x x x x x x x x x x x x x x x x x x x x x x         ",
"        x x x x x x x x x x x x x x x x x x x x x x x x x x x x x x x x x x x x x x x x         ",
"        d x x x x x x x x x x x x x x x x x x x x x x x x x x x x x x x x x x x x x x d         ",
"        O x x x x x x x x x x x x x x x x x x x x x x x x x x x x x x x x x x x x x x O         ",
"          x x x x x x x x x x x x x x x x x x x x x x x x x x x x x x x x x x x x x x           ",
"          x x x x x x x x x x x x x x x x x x x x x x x x x x x x x x x x x x x x x x           ",
"            x x x x x x x x x x x x x x x x x x x x x x x x x x x x x x x x x x x x             ",
"              x x x x x x x x x x x x x x x x x x x x x x x x x x x x x x x x x x               ",
"                x x x x x x x x x x x x x x x x x x x x x x x x x x x x x x x x                 ",
"                    O d x x x x x x x x x x x x x x x x x x x x x x x x d O                     ",
"                                                                                                ",
"                                                                                                ",
"                                                                                                ",
"                                                                                                ",
"                                                                                                ",
"                                                                                                ",
"                                                                                                "
};
